public/assets/icons/upload.svg

<svg width="21" height="20" viewBox="0 0 21 20" fill="none" xmlns="http://www.w3.org/2000/svg">
<g clip-path="url(#clip0_80002_4015)">
<path d="M16.1273 17.2763H11.8363V12.9403H13.2544C13.614 12.9403 13.8265 12.5317 13.614 12.2374L10.8555 8.42053C10.6798 8.17533 10.3161 8.17533 10.1404 8.42053L7.3819 12.2374C7.16939 12.5317 7.37781 12.9403 7.74152 12.9403H9.15958V17.2763H4.3537C2.20821 17.1578 0.5 15.1512 0.5 12.9771C0.5 11.4773 1.31324 10.1696 2.5188 9.46262C2.40846 9.16429 2.35125 8.84554 2.35125 8.51043C2.35125 6.97794 3.5895 5.73969 5.12199 5.73969C5.453 5.73969 5.77176 5.79691 6.07009 5.90724C6.95689 4.02739 8.86943 2.72375 11.0926 2.72375C13.9696 2.72784 16.3398 4.93054 16.6095 7.73806C18.8204 8.11812 20.5 10.1655 20.5 12.4826C20.5 14.9591 18.5711 17.1046 16.1273 17.2763Z" fill="white"/>
</g>
<defs>
<clipPath id="clip0_80002_4015">
<rect width="20" height="20" fill="white" transform="translate(0.5)"/>
</clipPath>
</defs>
</svg>

<svg xmlns="http://www.w3.org/2000/svg" width="21" height="20" fill="none"><g clip-path="url(#a)"><path fill="#fff" d="M16.127 17.276h-4.29V12.94h1.417c.36 0 .572-.408.36-.703l-2.759-3.816a.44.44 0 0 0-.715 0l-2.758 3.816a.442.442 0 0 0 .36.703H9.16v4.336H4.354C2.208 17.158.5 15.151.5 12.977c0-1.5.813-2.807 2.019-3.514A2.768 2.768 0 0 1 6.07 5.908a5.55 5.55 0 0 1 5.023-3.184 5.557 5.557 0 0 1 5.517 5.014c2.21.38 3.89 2.427 3.89 4.745 0 2.476-1.929 4.622-4.373 4.793"/></g><defs><clipPath id="a"><path fill="#fff" d="M.5 0h20v20H.5z"/></clipPath></defs></svg>
